svg/fluentui-system-icons/ic_fluent_textbox_align_top_rotate_90_20_regular.svg

<svg width="20" height="20" viewBox="0 0 20 20" fill="none" xmlns="http://www.w3.org/2000/svg">
<path d="M13.5 5C13.7761 5 14 5.22386 14 5.5V14.5C14 14.7761 13.7761 15 13.5 15C13.2239 15 13 14.7761 13 14.5V5.5C13 5.22386 13.2239 5 13.5 5ZM11 5.5C11 5.22386 10.7761 5 10.5 5C10.2239 5 10 5.22386 10 5.5V14.5C10 14.7761 10.2239 15 10.5 15C10.7761 15 11 14.7761 11 14.5V5.5ZM3 5C3 3.89543 3.89543 3 5 3H15C16.1046 3 17 3.89543 17 5V15C17 16.1046 16.1046 17 15 17H5C3.89543 17 3 16.1046 3 15V5ZM5 4C4.44772 4 4 4.44772 4 5V15C4 15.5523 4.44772 16 5 16H15C15.5523 16 16 15.5523 16 15V5C16 4.44772 15.5523 4 15 4H5Z" fill="#212121"/>
</svg>

<svg xmlns="http://www.w3.org/2000/svg" width="20" height="20"><path d="M13.5 5a.5.5 0 0 1 .5.5v9a.5.5 0 0 1-1 0v-9a.5.5 0 0 1 .5-.5Zm-2.5.5a.5.5 0 0 0-1 0v9a.5.5 0 0 0 1 0v-9ZM3 5a2 2 0 0 1 2-2h10a2 2 0 0 1 2 2v10a2 2 0 0 1-2 2H5a2 2 0 0 1-2-2V5Zm2-1a1 1 0 0 0-1 1v10a1 1 0 0 0 1 1h10a1 1 0 0 0 1-1V5a1 1 0 0 0-1-1H5Z"/></svg>
